web/packages/design/src/ResourceIcon/assets/metabase.svg

<svg width="72" height="72" viewBox="0 0 72 72" fill="none" xmlns="http://www.w3.org/2000/svg">
<g clip-path="url(#clip0_6726_30100)">
<path d="M11.8414 22.7914C14.224 22.7914 16.1554 20.829 16.1554 18.4084C16.1554 15.9877 14.224 14.0254 11.8414 14.0254C9.4588 14.0254 7.52734 15.9877 7.52734 18.4084C7.52734 20.829 9.4588 22.7914 11.8414 22.7914Z" fill="#509EE3"/>
<path d="M11.8414 35.0638C14.224 35.0638 16.1554 33.1015 16.1554 30.6808C16.1554 28.2602 14.224 26.2979 11.8414 26.2979C9.4588 26.2979 7.52734 28.2602 7.52734 30.6808C7.52734 33.1015 9.4588 35.0638 11.8414 35.0638Z" fill="#509EE3"/>
<path opacity="0.2" d="M23.9205 22.7914C26.3031 22.7914 28.2345 20.829 28.2345 18.4084C28.2345 15.9877 26.3031 14.0254 23.9205 14.0254C21.5379 14.0254 19.6064 15.9877 19.6064 18.4084C19.6064 20.829 21.5379 22.7914 23.9205 22.7914Z" fill="#509EE3"/>
<path d="M23.9205 35.183C26.3031 35.183 28.2345 33.2206 28.2345 30.8C28.2345 28.3793 26.3031 26.417 23.9205 26.417C21.5379 26.417 19.6064 28.3793 19.6064 30.8C19.6064 33.2206 21.5379 35.183 23.9205 35.183Z" fill="#509EE3"/>
<path opacity="0.2" d="M35.9996 22.7914C38.3822 22.7914 40.3136 20.829 40.3136 18.4084C40.3136 15.9877 38.3822 14.0254 35.9996 14.0254C33.617 14.0254 31.6855 15.9877 31.6855 18.4084C31.6855 20.829 33.617 22.7914 35.9996 22.7914Z" fill="#509EE3"/>
<path opacity="0.2" d="M35.9996 8.76598C38.3822 8.76598 40.3136 6.80365 40.3136 4.38299C40.3136 1.96233 38.3822 0 35.9996 0C33.617 0 31.6855 1.96233 31.6855 4.38299C31.6855 6.80365 33.617 8.76598 35.9996 8.76598Z" fill="#509EE3"/>
<path opacity="0.2" d="M35.9996 35.183C38.3822 35.183 40.3136 33.2206 40.3136 30.8C40.3136 28.3793 38.3822 26.417 35.9996 26.417C33.617 26.417 31.6855 28.3793 31.6855 30.8C31.6855 33.2206 33.617 35.183 35.9996 35.183Z" fill="#509EE3"/>
<path opacity="0.2" d="M48.0787 22.7914C50.4613 22.7914 52.3927 20.829 52.3927 18.4084C52.3927 15.9877 50.4613 14.0254 48.0787 14.0254C45.6961 14.0254 43.7646 15.9877 43.7646 18.4084C43.7646 20.829 45.6961 22.7914 48.0787 22.7914Z" fill="#509EE3"/>
<path d="M60.1588 22.7914C62.5413 22.7914 64.4728 20.829 64.4728 18.4084C64.4728 15.9877 62.5413 14.0254 60.1588 14.0254C57.7762 14.0254 55.8447 15.9877 55.8447 18.4084C55.8447 20.829 57.7762 22.7914 60.1588 22.7914Z" fill="#509EE3"/>
<path d="M48.0787 35.183C50.4613 35.183 52.3927 33.2206 52.3927 30.8C52.3927 28.3793 50.4613 26.417 48.0787 26.417C45.6961 26.417 43.7646 28.3793 43.7646 30.8C43.7646 33.2206 45.6961 35.183 48.0787 35.183Z" fill="#509EE3"/>
<path d="M60.1588 35.183C62.5413 35.183 64.4728 33.2206 64.4728 30.8C64.4728 28.3793 62.5413 26.417 60.1588 26.417C57.7762 26.417 55.8447 28.3793 55.8447 30.8C55.8447 33.2206 57.7762 35.183 60.1588 35.183Z" fill="#509EE3"/>
<path d="M11.8414 47.3363C14.224 47.3363 16.1554 45.374 16.1554 42.9533C16.1554 40.5326 14.224 38.5703 11.8414 38.5703C9.4588 38.5703 7.52734 40.5326 7.52734 42.9533C7.52734 45.374 9.4588 47.3363 11.8414 47.3363Z" fill="#509EE3"/>
<path opacity="0.2" d="M23.9205 47.4554C26.3031 47.4554 28.2345 45.4931 28.2345 43.0724C28.2345 40.6518 26.3031 38.6895 23.9205 38.6895C21.5379 38.6895 19.6064 40.6518 19.6064 43.0724C19.6064 45.4931 21.5379 47.4554 23.9205 47.4554Z" fill="#509EE3"/>
<path d="M35.9996 47.4554C38.3822 47.4554 40.3136 45.4931 40.3136 43.0724C40.3136 40.6518 38.3822 38.6895 35.9996 38.6895C33.617 38.6895 31.6855 40.6518 31.6855 43.0724C31.6855 45.4931 33.617 47.4554 35.9996 47.4554Z" fill="#509EE3"/>
<path opacity="0.2" d="M48.0787 47.4554C50.4613 47.4554 52.3927 45.4931 52.3927 43.0724C52.3927 40.6518 50.4613 38.6895 48.0787 38.6895C45.6961 38.6895 43.7646 40.6518 43.7646 43.0724C43.7646 45.4931 45.6961 47.4554 48.0787 47.4554Z" fill="#509EE3"/>
<path d="M60.1588 47.4554C62.5413 47.4554 64.4728 45.4931 64.4728 43.0724C64.4728 40.6518 62.5413 38.6895 60.1588 38.6895C57.7762 38.6895 55.8447 40.6518 55.8447 43.0724C55.8447 45.4931 57.7762 47.4554 60.1588 47.4554Z" fill="#509EE3"/>
<path d="M11.8414 59.6088C14.224 59.6088 16.1554 57.6464 16.1554 55.2258C16.1554 52.8051 14.224 50.8428 11.8414 50.8428C9.4588 50.8428 7.52734 52.8051 7.52734 55.2258C7.52734 57.6464 9.4588 59.6088 11.8414 59.6088Z" fill="#509EE3"/>
<path opacity="0.2" d="M23.9205 59.7279C26.3031 59.7279 28.2345 57.7656 28.2345 55.3449C28.2345 52.9242 26.3031 50.9619 23.9205 50.9619C21.5379 50.9619 19.6064 52.9242 19.6064 55.3449C19.6064 57.7656 21.5379 59.7279 23.9205 59.7279Z" fill="#509EE3"/>
<path opacity="0.2" d="M35.9996 59.7279C38.3822 59.7279 40.3136 57.7656 40.3136 55.3449C40.3136 52.9242 38.3822 50.9619 35.9996 50.9619C33.617 50.9619 31.6855 52.9242 31.6855 55.3449C31.6855 57.7656 33.617 59.7279 35.9996 59.7279Z" fill="#509EE3"/>
<path opacity="0.2" d="M35.9996 72.0004C38.3822 72.0004 40.3136 70.038 40.3136 67.6174C40.3136 65.1967 38.3822 63.2344 35.9996 63.2344C33.617 63.2344 31.6855 65.1967 31.6855 67.6174C31.6855 70.038 33.617 72.0004 35.9996 72.0004Z" fill="#509EE3"/>
<path opacity="0.2" d="M48.0787 59.7279C50.4613 59.7279 52.3927 57.7656 52.3927 55.3449C52.3927 52.9242 50.4613 50.9619 48.0787 50.9619C45.6961 50.9619 43.7646 52.9242 43.7646 55.3449C43.7646 57.7656 45.6961 59.7279 48.0787 59.7279Z" fill="#509EE3"/>
<path d="M60.1588 59.7279C62.5413 59.7279 64.4728 57.7656 64.4728 55.3449C64.4728 52.9242 62.5413 50.9619 60.1588 50.9619C57.7762 50.9619 55.8447 52.9242 55.8447 55.3449C55.8447 57.7656 57.7762 59.7279 60.1588 59.7279Z" fill="#509EE3"/>
</g>
<defs>
<clipPath id="clip0_6726_30100">
<rect width="72" height="72" fill="white"/>
</clipPath>
</defs>
</svg>

<svg xmlns="http://www.w3.org/2000/svg" width="72" height="72" fill="none" viewBox="0 0 72 72"><g fill="#509ee3" clip-path="url(#clip0_6726_30100)"><path d="M11.841 22.791c2.383 0 4.314-1.962 4.314-4.383 0-2.42-1.931-4.383-4.314-4.383s-4.314 1.963-4.314 4.383 1.932 4.383 4.314 4.383m0 12.273c2.383 0 4.314-1.962 4.314-4.383 0-2.42-1.931-4.383-4.314-4.383S7.527 28.26 7.527 30.68s1.932 4.383 4.314 4.383"/><path d="M23.92 22.791c2.383 0 4.314-1.962 4.314-4.383 0-2.42-1.93-4.383-4.314-4.383-2.382 0-4.314 1.963-4.314 4.383s1.932 4.383 4.314 4.383" opacity=".2"/><path d="M23.92 35.183c2.383 0 4.314-1.962 4.314-4.383 0-2.42-1.93-4.383-4.314-4.383-2.382 0-4.314 1.962-4.314 4.383 0 2.42 1.932 4.383 4.314 4.383"/><path d="M36 22.791c2.382 0 4.314-1.962 4.314-4.383 0-2.42-1.932-4.383-4.314-4.383s-4.314 1.963-4.314 4.383 1.931 4.383 4.314 4.383m0-14.025c2.382 0 4.314-1.962 4.314-4.383C40.314 1.963 38.382 0 36 0s-4.314 1.962-4.314 4.383c0 2.42 1.931 4.383 4.314 4.383m0 26.417c2.382 0 4.314-1.962 4.314-4.383 0-2.42-1.932-4.383-4.314-4.383s-4.314 1.962-4.314 4.383c0 2.42 1.931 4.383 4.314 4.383m12.079-12.392c2.382 0 4.314-1.962 4.314-4.383 0-2.42-1.932-4.383-4.314-4.383s-4.314 1.963-4.314 4.383 1.931 4.383 4.314 4.383" opacity=".2"/><path d="M60.159 22.791c2.382 0 4.314-1.962 4.314-4.383 0-2.42-1.932-4.383-4.314-4.383s-4.314 1.963-4.314 4.383 1.931 4.383 4.314 4.383m-12.08 12.392c2.382 0 4.314-1.962 4.314-4.383 0-2.42-1.932-4.383-4.314-4.383s-4.314 1.962-4.314 4.383c0 2.42 1.931 4.383 4.314 4.383m12.08 0c2.382 0 4.314-1.962 4.314-4.383 0-2.42-1.932-4.383-4.314-4.383s-4.314 1.962-4.314 4.383c0 2.42 1.931 4.383 4.314 4.383M11.841 47.336c2.383 0 4.314-1.962 4.314-4.383 0-2.42-1.931-4.383-4.314-4.383s-4.314 1.963-4.314 4.383 1.932 4.383 4.314 4.383"/><path d="M23.92 47.455c2.383 0 4.314-1.962 4.314-4.383 0-2.42-1.93-4.382-4.314-4.382-2.382 0-4.314 1.962-4.314 4.382s1.932 4.383 4.314 4.383" opacity=".2"/><path d="M36 47.455c2.382 0 4.314-1.962 4.314-4.383 0-2.42-1.932-4.382-4.314-4.382s-4.314 1.962-4.314 4.382 1.931 4.383 4.314 4.383"/><path d="M48.079 47.455c2.382 0 4.314-1.962 4.314-4.383 0-2.42-1.932-4.382-4.314-4.382s-4.314 1.962-4.314 4.382 1.931 4.383 4.314 4.383" opacity=".2"/><path d="M60.159 47.455c2.382 0 4.314-1.962 4.314-4.383 0-2.42-1.932-4.382-4.314-4.382s-4.314 1.962-4.314 4.382 1.931 4.383 4.314 4.383M11.841 59.609c2.383 0 4.314-1.963 4.314-4.383s-1.931-4.383-4.314-4.383-4.314 1.962-4.314 4.383c0 2.42 1.932 4.383 4.314 4.383"/><path d="M23.92 59.728c2.383 0 4.314-1.962 4.314-4.383 0-2.42-1.93-4.383-4.314-4.383-2.382 0-4.314 1.962-4.314 4.383 0 2.42 1.932 4.383 4.314 4.383m12.08 0c2.382 0 4.314-1.962 4.314-4.383 0-2.42-1.932-4.383-4.314-4.383s-4.314 1.962-4.314 4.383c0 2.42 1.931 4.383 4.314 4.383M36 72c2.382 0 4.314-1.962 4.314-4.383 0-2.42-1.932-4.383-4.314-4.383s-4.314 1.963-4.314 4.383S33.617 72 36 72m12.079-12.272c2.382 0 4.314-1.962 4.314-4.383 0-2.42-1.932-4.383-4.314-4.383s-4.314 1.962-4.314 4.383c0 2.42 1.931 4.383 4.314 4.383" opacity=".2"/><path d="M60.159 59.728c2.382 0 4.314-1.962 4.314-4.383 0-2.42-1.932-4.383-4.314-4.383s-4.314 1.962-4.314 4.383c0 2.42 1.931 4.383 4.314 4.383"/></g><defs><clipPath id="clip0_6726_30100"><path fill="#fff" d="M0 0h72v72H0z"/></clipPath></defs></svg>
